src/16/actions/mail-signed-full.svg

<svg xmlns="http://www.w3.org/2000/svg" width="16" height="16" viewBox="0 0 16 16">
 <defs>
  <style id="current-color-scheme" type="text/css">
   .ColorScheme-Text { color:#565656; } .ColorScheme-Highlight { color:#5294e2; }
  </style>
 </defs>
 <path style="fill:currentColor" class="ColorScheme-Text" d="M 2 2 C 0.892 2 0 2.892 0 4 L 0 12 C 0 13.108 0.892 14 2 14 L 9 14 L 9 12 C 9.00005 11.7348 9.1054287 11.480479 9.2929688 11.292969 L 11.292969 9.2929688 L 12.292969 8.2929688 L 13.292969 7.2929688 C 13.476969 7.1086687 13.726328 7.004 13.986328 7 C 14.256258 6.99639 14.516181 7.1020487 14.707031 7.2929688 L 16 8.5859375 L 16 4 C 16 2.892 15.108 2 14 2 L 2 2 z M 2 4 L 8 7 L 14 4 L 14 6 L 8 9 L 2 6 L 2 4 z M 14 8 L 13 9 L 12 10 L 10 12 L 10 14 L 12 14 L 12.59375 13.40625 L 13 13 L 14 12 L 15 11 L 16 10 L 14 8 z"/>
</svg>

<svg xmlns="http://www.w3.org/2000/svg" width="16" height="16"><defs><style id="current-color-scheme" type="text/css"></style></defs><path d="M2 2C.892 2 0 2.892 0 4v8c0 1.108.892 2 2 2h7v-2a1 1 0 0 1 .293-.707l2-2 1-1 1-1a1.002 1.002 0 0 1 1.414 0L16 8.586V4c0-1.108-.892-2-2-2H2zm0 2l6 3 6-3v2L8 9 2 6V4zm12 4l-1 1-1 1-2 2v2h2l.594-.594L13 13l1-1 1-1 1-1-2-2z" fill="currentColor" color="#565656"/></svg>
